src/assets/filled/SmartHome.svg

<svg width="24" height="24" viewBox="0 0 24 24"  xmlns="http://www.w3.org/2000/svg">
<path d="M20.86 8.56028L13.93 3.02028C12.86 2.16028 11.13 2.16028 10.07 3.01028L3.14002 8.56028C2.36002 9.18028 1.86002 10.4903 2.03002 11.4703L3.36002 19.4303C3.60002 20.8503 4.96002 22.0003 6.40002 22.0003H17.6C19.03 22.0003 20.4 20.8403 20.64 19.4303L21.97 11.4703C22.13 10.4903 21.63 9.18028 20.86 8.56028ZM9.38002 17.3803C8.82002 17.3803 8.38002 16.9303 8.38002 16.3803C8.38002 15.8303 8.83002 15.3803 9.38002 15.3803C9.93002 15.3803 10.38 15.8303 10.38 16.3803C10.38 16.9303 9.93002 17.3803 9.38002 17.3803ZM12.39 17.1203C12.38 17.1203 12.38 17.1203 12.37 17.1203C11.96 17.1203 11.63 16.7903 11.62 16.3903C11.59 15.0403 10.7 14.1503 9.35002 14.1203C8.94002 14.1103 8.61002 13.7703 8.62002 13.3503C8.63002 12.9403 8.96002 12.6203 9.37002 12.6203C9.38002 12.6203 9.38002 12.6203 9.39002 12.6203C11.54 12.6703 13.08 14.2003 13.12 16.3503C13.13 16.7703 12.81 17.1203 12.39 17.1203ZM15.38 17.1203C14.96 17.1203 14.63 16.7903 14.62 16.3803C14.61 15.7203 14.5 15.0903 14.3 14.5003C13.79 13.0403 12.7 11.9603 11.24 11.4403C10.65 11.2303 10.02 11.1203 9.36002 11.1203C8.95002 11.1203 8.61002 10.7803 8.62002 10.3603C8.62002 9.95028 8.96002 9.62028 9.37002 9.62028H9.38002C10.21 9.63028 11 9.77028 11.74 10.0303C13.63 10.7003 15.04 12.1103 15.71 14.0003C15.97 14.7403 16.11 15.5403 16.12 16.3603C16.13 16.7803 15.8 17.1203 15.38 17.1203Z" />
</svg>

<?xml version="1.0" encoding="UTF-8"?>
<svg width="24" height="24" viewBox="0 0 24 24" xmlns="http://www.w3.org/2000/svg">
 <path d="m20.86 8.5603-6.93-5.54c-1.07-0.86-2.8-0.86-3.86-0.01l-6.93 5.55c-0.78 0.62-1.28 1.93-1.11 2.91l1.33 7.96c0.24 1.42 1.6 2.57 3.04 2.57h11.2c1.43 0 2.8-1.16 3.04-2.57l1.33-7.96c0.16-0.98-0.34-2.29-1.11-2.91zm-11.48 8.82c-0.56 0-1-0.45-1-1s0.45-1 1-1 0.99998 0.45 0.99998 1-0.44998 1-0.99998 1zm3.01-0.26h-0.02c-0.41 0-0.74-0.33-0.75-0.73-0.03-1.35-0.92-2.24-2.27-2.27-0.41-0.01-0.74-0.35-0.73-0.77 0.01-0.41 0.34-0.73 0.75-0.73h0.02c2.15 0.05 3.69 1.58 3.73 3.73 0.01 0.42-0.31 0.77-0.73 0.77zm2.99 0c-0.42 0-0.75-0.33-0.76-0.74-0.01-0.66-0.12-1.29-0.32-1.88-0.51-1.46-1.6-2.54-3.06-3.06-0.59-0.21-1.22-0.32-1.88-0.32-0.41 0-0.75-0.34-0.74-0.76 0-0.41002 0.34-0.74002 0.75-0.74002h0.01c0.82998 0.01 1.62 0.15 2.36 0.41002 1.89 0.67 3.3 2.08 3.97 3.97 0.26 0.74 0.4 1.54 0.41 2.36 0.01 0.42-0.32 0.76-0.74 0.76z"/>
</svg>
